assets/images/simple-illustrations/simple-illustration__folder-open.svg

<svg xmlns="http://www.w3.org/2000/svg" width="48" height="48" fill="none" viewBox="0 0 48 48"><path fill="#FFD7B0" d="M35.5331 34.9605C35.5331 34.9605 36.8861 34.1652 36.8861 33.5276C36.8861 32.8899 39.0343 19.7583 39.0343 19.7583C39.0343 19.7583 39.2719 18.4854 37.7613 18.4854H14.6792C14.6792 18.4854 13.6439 18.4854 13.3263 19.2006C13.0087 19.9159 10.7004 34.6428 10.7004 34.6428L35.5331 34.9605V34.9605Z"/><path fill="#FFC68C" d="M10.4605 13.231C10.4605 13.231 8.46997 14.1062 8.46997 15.2215V34.0849C8.46997 34.0849 9.2629 34.6284 9.50525 34.7225C9.7476 34.8166 10.6982 34.6425 10.6982 34.6425L13.404 18.8027C13.404 18.8027 14.757 18.565 15.0746 18.565C15.3923 18.565 35.3709 18.1674 35.3709 18.1674L34.9732 15.6992C34.9732 15.6992 34.5756 15.1415 33.8579 15.1415C33.1403 15.1415 18.0981 15.5392 18.0981 15.5392L16.9052 14.7439L15.3123 13.311L10.4582 13.231H10.4605Z"/><path stroke="#002140" stroke-linecap="round" stroke-linejoin="round" stroke-width=".857" d="M8.54541 15.3934C8.54541 14.264 9.4607 13.3511 10.5877 13.3511H15.1053C15.7124 13.3511 16.2865 13.6193 16.6747 14.0852L17.3994 14.9534C17.5618 15.1464 17.8018 15.2593 18.0536 15.2593H34.5969C35.0675 15.2593 35.4487 15.6405 35.4487 16.111V18.311"/><path stroke="#002140" stroke-linecap="round" stroke-linejoin="round" stroke-width=".857" d="M10.5971 34.8141L13.2159 19.3578C13.3076 18.8143 13.7782 18.419 14.3288 18.419H37.9333C38.6321 18.419 39.1615 19.0472 39.0462 19.7366L36.6486 33.8777C36.5568 34.4212 36.0862 34.8165 35.5356 34.8165H9.74531C9.08649 34.8165 8.55238 34.2824 8.55238 33.6236L8.54297 15.3955"/><path stroke="#002140" stroke-linecap="round" stroke-linejoin="round" stroke-width=".857" d="M11.178 32.2544H36.886"/></svg>

<svg xmlns="http://www.w3.org/2000/svg" width="48" height="48" fill="none" viewBox="0 0 48 48"><path fill="#ffd7b0" d="M35.533 34.96s1.353-.795 1.353-1.432c0-.638 2.148-13.77 2.148-13.77s.238-1.273-1.273-1.273H14.68s-1.035 0-1.353.716c-.317.715-2.626 15.442-2.626 15.442z"/><path fill="#ffc68c" d="M10.46 13.231s-1.99.875-1.99 1.99v18.864s.793.543 1.035.637c.243.095 1.193-.08 1.193-.08l2.706-15.84s1.353-.237 1.67-.237c.318 0 20.297-.398 20.297-.398l-.398-2.468s-.397-.557-1.115-.557-15.76.397-15.76.397l-1.193-.795-1.593-1.433-4.854-.08z"/><path stroke="#002140" stroke-linecap="round" stroke-linejoin="round" stroke-width=".857" d="M8.545 15.393c0-1.129.916-2.042 2.043-2.042h4.517a2.04 2.04 0 0 1 1.57.734l.724.868a.86.86 0 0 0 .655.306h16.543c.47 0 .852.381.852.852v2.2"/><path stroke="#002140" stroke-linecap="round" stroke-linejoin="round" stroke-width=".857" d="m10.597 34.814 2.619-15.456a1.13 1.13 0 0 1 1.113-.939h23.604a1.13 1.13 0 0 1 1.113 1.318l-2.397 14.14a1.13 1.13 0 0 1-1.113.94H9.746a1.193 1.193 0 0 1-1.194-1.193l-.009-18.229m2.635 16.859h25.708"/></svg>
